X:1
T:Sheehan's Reel
R:Reel
M:C|
%%printtempo 0
Q:180
K:G
D|\
"G"G2BG DGBG|"D"ABcA "G"BGGB|"Am"A^GAB cBcA|"D"EAAG FDEF|
"G"G2BG DGBd|"C"cBAB cdef|"Am"gedB c2 Bc|"D"dBcA "G"BGG:|
|:f|"G"g2bg dgbg|gbag fdde|"D"f2 af dfaf|"G"gagf "D"fdef|
"G"g2bg dgbg|gbag fdef|"C"gedB "Am"c2Bc|"D"dBcA "G"BGG:|
